src/images/icon-search.svg

<svg width="40" height="40" viewBox="0 0 40 40" fill="none" xmlns="http://www.w3.org/2000/svg">
<path d="M22.75 8C23.5078 8 24.2383 8.09766 24.9414 8.29297C25.6445 8.48828 26.3008 8.76562 26.9102 9.125C27.5195 9.48438 28.0742 9.91797 28.5742 10.4258C29.082 10.9258 29.5156 11.4805 29.875 12.0898C30.2344 12.6992 30.5117 13.3555 30.707 14.0586C30.9023 14.7617 31 15.4922 31 16.25C31 17.0078 30.9023 17.7383 30.707 18.4414C30.5117 19.1445 30.2344 19.8008 29.875 20.4102C29.5156 21.0195 29.082 21.5781 28.5742 22.0859C28.0742 22.5859 27.5195 23.0156 26.9102 23.375C26.3008 23.7344 25.6445 24.0117 24.9414 24.207C24.2383 24.4023 23.5078 24.5 22.75 24.5C21.7734 24.5 20.8359 24.3359 19.9375 24.0078C19.0469 23.6797 18.2266 23.207 17.4766 22.5898L8.27734 31.7773C8.12891 31.9258 7.95312 32 7.75 32C7.54688 32 7.37109 31.9258 7.22266 31.7773C7.07422 31.6289 7 31.4531 7 31.25C7 31.0469 7.07422 30.8711 7.22266 30.7227L16.4102 21.5234C15.793 20.7734 15.3203 19.9531 14.9922 19.0625C14.6641 18.1641 14.5 17.2266 14.5 16.25C14.5 15.4922 14.5977 14.7617 14.793 14.0586C14.9883 13.3555 15.2656 12.6992 15.625 12.0898C15.9844 11.4805 16.4141 10.9258 16.9141 10.4258C17.4219 9.91797 17.9805 9.48438 18.5898 9.125C19.1992 8.76562 19.8555 8.48828 20.5586 8.29297C21.2617 8.09766 21.9922 8 22.75 8ZM22.75 23C23.6797 23 24.5547 22.8242 25.375 22.4727C26.1953 22.1133 26.9102 21.6289 27.5195 21.0195C28.1289 20.4102 28.6094 19.6953 28.9609 18.875C29.3203 18.0547 29.5 17.1797 29.5 16.25C29.5 15.3203 29.3203 14.4453 28.9609 13.625C28.6094 12.8047 28.1289 12.0898 27.5195 11.4805C26.9102 10.8711 26.1953 10.3906 25.375 10.0391C24.5547 9.67969 23.6797 9.5 22.75 9.5C21.8203 9.5 20.9453 9.67969 20.125 10.0391C19.3047 10.3906 18.5898 10.8711 17.9805 11.4805C17.3711 12.0898 16.8867 12.8047 16.5273 13.625C16.1758 14.4453 16 15.3203 16 16.25C16 17.1797 16.1758 18.0547 16.5273 18.875C16.8867 19.6953 17.3711 20.4102 17.9805 21.0195C18.5898 21.6289 19.3047 22.1133 20.125 22.4727C20.9453 22.8242 21.8203 23 22.75 23Z" fill="#FFFCF9"/>
</svg>

<svg xmlns="http://www.w3.org/2000/svg" width="40" height="40" fill="none" viewBox="0 0 40 40"><path fill="#FFFCF9" d="M22.75 8a8.15 8.15 0 0 1 5.824 2.426A8.106 8.106 0 0 1 31 16.25a8.15 8.15 0 0 1-1.125 4.16 8.392 8.392 0 0 1-2.965 2.965 8.15 8.15 0 0 1-4.16 1.125 8.135 8.135 0 0 1-2.813-.492 8.45 8.45 0 0 1-2.46-1.418l-9.2 9.187A.72.72 0 0 1 7.75 32a.72.72 0 0 1-.527-.223A.72.72 0 0 1 7 31.25a.72.72 0 0 1 .223-.527l9.187-9.2a8.445 8.445 0 0 1-1.418-2.46 8.135 8.135 0 0 1-.492-2.813 8.15 8.15 0 0 1 1.125-4.16c.36-.61.79-1.164 1.29-1.664a8.39 8.39 0 0 1 1.675-1.301A8.152 8.152 0 0 1 22.75 8zm0 15a6.6 6.6 0 0 0 2.625-.527 6.936 6.936 0 0 0 2.145-1.453 6.77 6.77 0 0 0 1.44-2.145c.36-.82.54-1.695.54-2.625 0-.93-.18-1.805-.54-2.625a6.77 6.77 0 0 0-1.44-2.145 6.77 6.77 0 0 0-2.145-1.44 6.469 6.469 0 0 0-2.625-.54c-.93 0-1.805.18-2.625.54a6.77 6.77 0 0 0-2.145 1.44 6.936 6.936 0 0 0-1.453 2.145A6.594 6.594 0 0 0 16 16.25a6.6 6.6 0 0 0 .527 2.625c.36.82.844 1.535 1.453 2.145a6.936 6.936 0 0 0 2.145 1.453A6.6 6.6 0 0 0 22.75 23z"/></svg>
